rospo-newyear-dark/symbolic/emotes/face-worried-symbolic.svg

<svg height="16" width="16" xmlns="http://www.w3.org/2000/svg"><path d="m8 1c-3.87 0-7 3.13-7 7 0 3.86 3.13 7 7 7s7-3.14 7-7c0-3.87-3.13-7-7-7zm-3 4c .55 0 1 .45 1 1s-.45 1-1 1-1-.45-1-1 .45-1 1-1zm6 0c .55 0 1 .45 1 1s-.45 1-1 1-1-.45-1-1 .45-1 1-1zm-.23 3.99c.34.03.67.13.95.32.37.24.62.61.75 1.03.36.69-.81 1.08-.94.31-.06-.2-.2-.38-.37-.5-.18-.11-.39-.17-.6-.15-.29.02-.64.23-1.03.46-.2.12-.43.24-.69.35-.25.1-.53.19-.84.19s-.59-.09-.84-.19c-.25-.11-.49-.23-.69-.35-.39-.23-.74-.44-1.03-.46-.21-.02-.42.04-.6.15-.17.12-.31.3-.37.5-.13.77-1.3.38-.94-.31.13-.42.38-.79.75-1.03.28-.19.6-.29.94-.31.11-.01.23-.01.34 0 .61.05 1.06.36 1.44.59.19.12.36.24.53.31s.33.1.47.1.3-.03.47-.1.34-.19.53-.31c.38-.23.83-.54 1.44-.59.11-.01.22-.01.33-.01z" fill="#d3dae3"/></svg>

<svg xmlns="http://www.w3.org/2000/svg" width="16" height="16" version="1.1">
 <path style="fill:#d3dae3" d="M 8,1 C 4.13,1 1,4.13 1,8 1,11.86 4.13,15 8,15 11.87,15 15,11.86 15,8 15,4.13 11.87,1 8,1 Z M 5,5 C 5.55,5 6,5.45 6,6 6,6.55 5.55,7 5,7 4.45,7 4,6.55 4,6 4,5.45 4.45,5 5,5 Z M 11,5 C 11.55,5 12,5.45 12,6 12,6.55 11.55,7 11,7 10.45,7 10,6.55 10,6 10,5.45 10.45,5 11,5 Z M 10.77,8.99 C 11.11,9.02 11.44,9.12 11.72,9.31 12.09,9.55 12.34,9.92 12.47,10.34 12.83,11.03 11.66,11.42 11.53,10.65 11.47,10.45 11.33,10.27 11.16,10.15 10.98,10.04 10.77,9.98 10.56,10 10.27,10.02 9.92,10.23 9.53,10.46 9.33,10.58 9.1,10.7 8.84,10.81 8.59,10.91 8.31,11 8,11 7.69,11 7.41,10.91 7.16,10.81 6.91,10.7 6.67,10.58 6.47,10.46 6.08,10.23 5.73,10.02 5.44,10 5.23,9.98 5.02,10.04 4.84,10.15 4.67,10.27 4.53,10.45 4.47,10.65 4.34,11.42 3.17,11.03 3.53,10.34 3.66,9.92 3.91,9.55 4.28,9.31 4.56,9.12 4.88,9.02 5.22,9 5.33,8.99 5.45,8.99 5.56,9 6.17,9.05 6.62,9.36 7,9.59 7.19,9.71 7.36,9.83 7.53,9.9 7.7,9.97 7.86,10 8,10 8.14,10 8.3,9.97 8.47,9.9 8.64,9.83 8.81,9.71 9,9.59 9.38,9.36 9.83,9.05 10.44,9 10.55,8.99 10.66,8.99 10.77,8.99 Z"/>
</svg>
